!!!COM: Paul Hindemith
!!!OTL: [T640_Hin-w48p7s1-3]
**kern	**dynam	**kern	**dynam
*grp:A	*grp:A	*grp:B	*grp:B
*part2	*part1/2	*part1	*part1/2
*staff2	*	*staff1	*
*I"Violoncello	*	*I"Viola	*
*I'Vc.	*	*I'Vla.	*
*clefG2	*	*clefC3	*
*k[]	*	*k[]	*
*C:	*	*C:	*
*M3/8	*	*M3/8	*
=327	=327	=327	=327
!	!	!LO:TX:t=[[eighth]=154]	!
!	!	!LO:TX:a:i:t=[pizz.]	!
!	!LO:DY:ed=brack	!	!LO:DY:ed=brack
8ryy	4ryy	8FL	p
16ryy	.	8gJ	.
16ryy	.	.	.
16ryy	4ryy	8r	<
16ryy	.	.	.
=328	=328	=328	=328
*M2/8	*	*M2/8	*
16ryy	.	4r	.
16ryy	.	.	.
16ryy	.	.	.
16ryy	.	.	.
=329	=329	=329	=329
!	!	!LO:TX:a:i:t=arco	!
4ryy	.	(16FLL	.
.	.	16GJ)	.
.	.	8A-XJ	.
=330	=330	=330	=330
*M3/8	*	*M3/8	*
8ryy	.	.	.
4ryy	.	8A-XL	.
.	.	8A-	.
8ryy	.	.	.
8ryy	.	8A-J	.
=331	=331	=331	=331
.	4ryy	(8qB-X/	[
8ryy	.	8A-XL	.
8ryy	.	.	.
4ryy	.	8G)	.
.	.	8FJ	.
=332	=332	=332	=332
*M2/4	*	*M2/4	*
8ryy	.	.	.
4ryy	4ryy	8r	mf
!	!	!LO:TX:a:i:t=pizz.	!
.	.	8EL	.
4ryy	.	8d	.
.	.	8AJ	.
!!linebreak:original
=333	=333	=333	=333
*M3/8	*	*M3/8	*
8ryy	.	8DL	.
8ryy	.	8cJ	.
8ryy	.	8r	.
=334	=334	=334	=334
8ryy	.	.	.
8ryy	.	8C#XL	.
8ryy	.	8BJ	.
8ryy	.	8r	.
=335	=335	=335	=335
8ryy	.	8F#XL	.
16ryy	.	8e	.
16ryy	.	.	.
16ryy	.	8BJ	.
16ryy	.	.	.
=336	=336	=336	=336
*M2/4	*	*M2/4	*
4ryy	.	8EL	.
.	.	8dJ	.
4ryy	.	8r	.
.	.	8D#X	.
=337	=337	=337	=337
*M3/8	*	*M3/8	*
8ryy	.	8c#XL	.
8ryy	.	8r	.
8ryy	4ryy	8cnJ	>
=338	=338	=338	=338
8ryy	.	.	.
8ryy	.	8b-XL	.
8ryy	.	8g	.
8ryy	.	8BnJ	.
!!linebreak:original
=339	=339	=339	=339
8ryy	.	8aL	.
16ryy	.	8r	.
16ryy	.	.	.
16ryy	.	8B-XJ	.
16ryy	.	.	.
=340	=340	=340	=340
*M2/4	*	*M2/4	*
4ryy	.	8a-X	.
.	.	8r	.
4ryy	.	8E-XL	.
.	.	8d-XJ	.
=341	=341	=341	=341
*M3/8	*	*M3/8	*
8ryy	.	8A-XL	.
8ryy	.	8r	.
8ryy	4ryy	8E-XJ	]
=342	=342	=342	=342
8ryy	.	.	.
8ryy	.	8d-XL	.
8ryy	.	8A-XJ	.
8ryy	4ryy	8r	<
=343	=343	=343	=343
8ryy	.	8E-X	.
16ryy	.	8r	.
16ryy	.	.	.
16ryy	.	8r	.
16ryy	4ryy	.	[
=344	=344	=344	=344
*M2/8	*	*M2/8	*
!	!	!LO:TX:a:i:t=arco	!
16ryy	4ryy	(16c#XLL	f
16ryy	.	16d#XJ)	.
8ryy	.	8eJ	.
=	=	=	=
*-	*-	*-	*-
!!!system-decoration: [(s1,s2)]
!!!RDF**kern: > = above
!!!RDF**kern: < = below
!!!EED: Daniel Wright
!!!EEV: 2021/08/27
